assets/icons/uE020-pixels.svg

<svg xmlns="http://www.w3.org/2000/svg" width="896" height="1232" viewBox="0 0 896 1232"><path d="M840 56q23 0 39.5 16.5T896 112v196q0 23-16.5 39.5T840 364H644q-23 0-39.5-16.5T588 308V112q0-23 16.5-39.5T644 56h196zm0 252V112H644v196h196zM700 420q23 0 39.5 16.5T756 476v420q0 23-16.5 39.5T700 952H56q-23 0-39.5-16.5T0 896V252q0-23 16.5-39.5T56 196h420q23 0 39.5 16.5T532 252v168h168zM252 896V700H56v196h196zm0-224V476H56v196h196zm0-224V252H56v196h196zm224 448V700H280v196h196zm0-224V476H280v196h196zm0-224V252H280v196h196zm224 448V700H504v196h196zm0-224V476H504v196h196z"/></svg>

<?xml version="1.0" encoding="UTF-8" standalone="no"?><svg   xmlns:svg="http://www.w3.org/2000/svg"   xmlns="http://www.w3.org/2000/svg"   version="1.1"   width="896"   height="1232"   viewBox="0 0 896 1232">  <path     d="M840 56Q863 56 879.5 72.5T896 112V308Q896 331 879.5 347.5T840 364H644Q621 364 604.5 347.5T588 308V112Q588 89 604.5 72.5T644 56H840zM840 308V112H644V308H840zM700 420Q723 420 739.5 436.5T756 476V896Q756 919 739.5 935.5T700 952H56Q33 952 16.5 935.5T0 896V252Q0 229 16.5 212.5T56 196H476Q499 196 515.5 212.5T532 252V420H700zM252 896V700H56V896H252zM252 672V476H56V672H252zM252 448V252H56V448H252zM476 896V700H280V896H476zM476 672V476H280V672H476zM476 448V252H280V448H476zM700 896V700H504V896H700zM700 672V476H504V672H700z"     id="icon106" /></svg>
